Adwaita++-Dark/actions/16/view-list.svg

<svg height="16" width="16" xmlns="http://www.w3.org/2000/svg">
  <g fill="#e6ddff">
    <path d="m8 10h6v2h-6z"/>
    <path d="m8 4h6v2h-6z"/>
    <path d="m2.25 3h3.5c.1385 0 .25.1115.25.25v3.5c0 .1385-.1115.25-.25.25h-3.5c-.1385 0-.25-.1115-.25-.25v-3.5c0-.1385.1115-.25.25-.25z"/>
    <path d="m2.25 9h3.5c.1385 0 .25.1115.25.25v3.5c0 .139-.1115.25-.25.25h-3.5c-.1385 0-.25-.111-.25-.25v-3.5c0-.1385.1115-.25.25-.25z"/>
  </g>
</svg>

<svg xmlns="http://www.w3.org/2000/svg" width="16" height="16" version="1.1">
 <path style="fill:#E6DDFF" d="M 8,10 H 14 V 12 H 8 Z"/>
 <path style="fill:#E6DDFF" d="M 8,4 H 14 V 6 H 8 Z"/>
 <path style="fill:#E6DDFF" d="M 2.25,3 H 5.75 C 5.8885,3 6,3.1115 6,3.25 V 6.75 C 6,6.8885 5.8885,7 5.75,7 H 2.25 C 2.1115,7 2,6.8885 2,6.75 V 3.25 C 2,3.1115 2.1115,3 2.25,3 Z"/>
 <path style="fill:#E6DDFF" d="M 2.25,9 H 5.75 C 5.8885,9 6,9.1115 6,9.25 V 12.75 C 6,12.889 5.8885,13 5.75,13 H 2.25 C 2.1115,13 2,12.889 2,12.75 V 9.25 C 2,9.1115 2.1115,9 2.25,9 Z"/>
</svg>
